src/assets/inicio/sobre-icon.svg

<svg xmlns="http://www.w3.org/2000/svg" width="24" height="24" fill="none"><path fill="#16DB65" d="M0 0h24v24H0z"/><path fill="#000" d="M21 4c0-.478-.379-1-1-1H4c-.62 0-1 .519-1 1v16c0 .621.52 1 1 1h16c.478 0 1-.379 1-1V4Zm-3 11.25a.75.75 0 0 1-.75.75h-4.5a.75.75 0 0 1 0-1.5h4.5a.75.75 0 0 1 .75.75Zm-11.772-.537a.682.682 0 1 1 .91-1.018l.746.665 1.66-1.815a.683.683 0 0 1 1.009.92l-2.116 2.313a.68.68 0 0 1-.959.049l-1.25-1.114ZM18 12.002a.75.75 0 0 1-.75.75h-4.5a.75.75 0 0 1 0-1.5h4.5a.75.75 0 0 1 .75.75ZM6.228 10.389v.001a.681.681 0 1 1 .91-1.018l.746.664 1.66-1.815a.683.683 0 0 1 1.009.921l-2.116 2.313a.682.682 0 0 1-.959.048l-1.25-1.114ZM18 8.75a.75.75 0 0 1-.75.75h-4.5a.75.75 0 0 1 0-1.5h4.5a.75.75 0 0 1 .75.75Z"/></svg>

<svg width="24" height="24" viewBox="0 0 24 24" fill="none" xmlns="http://www.w3.org/2000/svg">
<rect width="24" height="24" fill="#16DB65"/>
<path d="M21 4C21 3.522 20.621 3 20 3H4C3.38 3 3 3.519 3 4V20C3 20.621 3.52 21 4 21H20C20.478 21 21 20.621 21 20V4ZM18 15.25C18 15.664 17.664 16 17.25 16H12.75C12.336 16 12 15.664 12 15.25C12 14.836 12.336 14.5 12.75 14.5H17.25C17.664 14.5 18 14.836 18 15.25ZM6.228 14.713C6.077 14.578 6 14.392 6 14.204C6 13.829 6.304 13.522 6.683 13.522C6.845 13.522 7.007 13.579 7.138 13.695L7.884 14.36L9.544 12.545C9.68 12.398 9.863 12.324 10.048 12.324C10.429 12.324 10.732 12.631 10.732 13.006C10.732 13.169 10.673 13.334 10.553 13.465L8.437 15.778C8.303 15.925 8.118 16 7.933 16C7.771 16 7.608 15.943 7.478 15.827L6.228 14.713ZM18 12.002C18 12.416 17.664 12.752 17.25 12.752H12.75C12.336 12.752 12 12.416 12 12.002C12 11.588 12.336 11.252 12.75 11.252H17.25C17.664 11.252 18 11.588 18 12.002ZM6.228 10.389V10.39C6.077 10.255 6 10.068 6 9.881C6 9.505 6.304 9.199 6.683 9.199C6.845 9.199 7.007 9.256 7.138 9.372L7.884 10.036L9.544 8.221C9.68 8.074 9.863 8 10.048 8C10.429 8 10.732 8.308 10.732 8.682C10.732 8.846 10.673 9.011 10.553 9.142L8.437 11.455C8.303 11.602 8.118 11.676 7.933 11.676C7.771 11.676 7.608 11.619 7.478 11.503L6.228 10.389ZM18 8.75C18 9.164 17.664 9.5 17.25 9.5H12.75C12.336 9.5 12 9.164 12 8.75C12 8.336 12.336 8 12.75 8H17.25C17.664 8 18 8.336 18 8.75Z" fill="black"/>
</svg>
